SVG-Logos/Frameworks-Languages-IDEs/Process/prplx master/semantic_ui.svg

<?xml version="1.0" encoding="UTF-8"?>
<svg width="95px" height="95px" viewBox="0 0 95 95" version="1.1" xmlns="http://www.w3.org/2000/svg" xmlns:xlink="http://www.w3.org/1999/xlink">
    <!-- Generator: Sketch 46.2 (44496) - http://www.bohemiancoding.com/sketch -->
    <title>semantic ui</title>
    <desc>Created with Sketch.</desc>
    <defs></defs>
    <g id="Page-1" stroke="none" stroke-width="1" fill="none" fill-rule="evenodd">
        <g id="Logos" transform="translate(-31.000000, -800.000000)">
            <g id="semantic-ui" transform="translate(31.000000, 800.000000)">
                <rect id="Rectangle" fill="#35BDB2" x="0" y="0" width="95" height="95"></rect>
                <path d="M61.6634583,32.872252 L69.428121,23.3972627 C65.4508623,20.1210796 62.2640399,18.0101451 59.8676538,17.0644592 C57.4712677,16.1187733 53.565149,15.4306202 48.1492977,15 C40.7232032,15.4942475 35.5712894,17.0370798 32.6935563,19.6284967 C28.4851716,23.4181738 26.0993745,28.2145504 25.5361649,34.0176265 C25.9845899,40.1951445 27.7878554,44.2975658 30.9459614,46.3248902 C34.1040673,48.3522147 37.9640809,50.4224762 42.526002,52.5356748 L54.4205523,57.9590869 C55.9835355,59.2034873 56.6253725,60.712086 56.3460634,62.4848828 C56.0667543,64.2576796 54.9506657,65.5123308 52.9977977,66.2488364 C50.6977267,67.1342677 48.8591751,67.5769834 47.4821429,67.5769834 C46.1051108,67.5769834 43.2717394,67.1342677 38.9820286,66.2488364 L30.9459614,60.9687411 L23,70.8912586 C25.956923,73.5128809 28.3704598,75.3309357 30.2406102,76.3454229 C32.1107607,77.3599101 35.692039,78.5313949 40.9844453,79.8598775 C45.010796,80.0467075 47.9936642,80.0467075 49.9330498,79.8598775 C51.8724355,79.6730474 54.8038419,79.005009 58.7272691,77.8557622 C62.1049254,76.121954 64.4855572,74.590533 65.8691646,73.2614991 C67.252772,71.9324653 68.4390908,70.0376267 69.428121,67.5769834 C70.5740129,64.9655605 71.0933927,62.3792809 70.9862605,59.8181446 C70.8791282,57.2570083 70.0467488,54.4301265 68.4891223,51.3374993 C66.2507975,48.6470081 63.9755762,46.6548843 61.6634583,45.3611278 C59.3513403,44.0673713 54.6242352,41.9365724 47.4821429,38.9687312 C44.68103,38.0688358 42.8300231,37.2439418 41.9291223,36.4940492 C41.0282214,35.7441566 40.4378461,34.5368909 40.1579965,32.872252 C40.433862,30.5145831 41.2231972,29.0212639 42.526002,28.3922943 C43.8288068,27.7633247 46.2978227,27.4488399 49.9330498,27.4488399 C52.2999201,27.583214 54.1313078,27.8976988 55.427213,28.3922943 C56.7231181,28.8868898 58.8018666,30.380209 61.6634583,32.872252 Z" id="Path-5" fill="#FFFFFF"></path>
            </g>
        </g>
    </g>
</svg>

<svg xmlns="http://www.w3.org/2000/svg" viewBox="0 0 95 95"><g fill="none" fill-rule="evenodd"><path fill="#35BDB2" d="M0 0h95v95H0z"/><path fill="#FFF" d="m61.663 32.872 7.765-9.475c-3.977-3.276-7.164-5.387-9.56-6.333-2.397-.945-6.303-1.633-11.719-2.064-7.426.494-12.578 2.037-15.455 4.628-4.209 3.79-6.595 8.587-7.158 14.39.449 6.177 2.252 10.28 5.41 12.307 3.158 2.027 7.018 4.097 11.58 6.21l11.895 5.424c1.563 1.244 2.204 2.753 1.925 4.526-.28 1.773-1.395 3.027-3.348 3.764-2.3.885-4.139 1.328-5.516 1.328-1.377 0-4.21-.443-8.5-1.328l-8.036-5.28L23 70.89c2.957 2.622 5.37 4.44 7.24 5.454 1.87 1.015 5.452 2.186 10.744 3.515 4.027.187 7.01.187 8.949 0 1.94-.187 4.87-.855 8.794-2.004 3.378-1.734 5.759-3.265 7.142-4.595 1.384-1.329 2.57-3.223 3.56-5.684 1.145-2.611 1.664-5.198 1.557-7.759-.107-2.561-.94-5.388-2.497-8.48-2.238-2.691-4.513-4.683-6.826-5.977-2.312-1.294-7.039-3.424-14.18-6.392-2.802-.9-4.653-1.725-5.554-2.475-.9-.75-1.491-1.957-1.771-3.622.276-2.357 1.065-3.85 2.368-4.48 1.303-.629 3.772-.943 7.407-.943 2.367.134 4.198.449 5.494.943 1.296.495 3.375 1.988 6.236 4.48Z"/></g></svg>
